X: 1
T: Yibone Hamikdosh
O: Zemirot Liturgy
Z: 2008 John Chambers <jc:trillian.mit.edu>
S: printed MS of unknown origin
M: 2/4
L: 1/8
K: Dm
|: "Dm"F D2 F | "C"ED C2 | CG FE | "Dm"D2 D2 \
|  "Dm"F D2 F | "C"ED C2 | CG FE | "Dm"D2 D2 :|
[| "Dm"z F2 F | A2 G2 | F2 A2 | "Gm"G4 \
|  "C7"z G2 G | A2 G2 | "(F)"F2 "C7"EG | "F"F4 |
|  "Dm"z F2 F | A2 G2 | F2 A2 | "Gm"G4 \
|  "A7"z G2 G | A2 G2 | "(Dm)"F2 "A7"E2 | "Dm"D4 |]
